X:1
T:Lady of the Lake,The. RH.172
R:Jig
S:Rev.R.Harrison's MS,c1815,Cumbria
O:England
A:Temple Sowerby,Cumbria
Z:vmp.Simon Wilson. Review PJH, 2008.
M:6/8
L:1/8
%Q:3/8=120
K:C
d |\
e2e efd | e2f gab | {d'}c'2b {b}a2g | gfe def |\
e2e efd | e2f gab | c'2a d'2c' | bc'a g2 :|
|: f |\
efd c2G | A2G c2G | A2G c2e | d2g g=f^f |\
efd c2G | A2G c2G | A2G c2d | efd c2 :|]
